src/resources/images/licenses/cc-by-nc.svg

<?xml version="1.0" encoding="UTF-8"?>
<svg version="1.0" viewBox="0 0 120 42" xmlns="http://www.w3.org/2000/svg" xmlnsCc="http://web.resource.org/cc/" xmlnsDc="http://purl.org/dc/elements/1.1/" xmlnsRdf="http://www.w3.org/1999/02/22-rdf-syntax-ns#">
<metadata>
<rdfRDF>
<ccWork rdfAbout="">
<dcFormat>image/svg+xml</dcFormat>
<dcType rdfResource="http://purl.org/dc/dcmitype/StillImage"/>
</ccWork>
</rdfRDF>
</metadata>
<g transform="matrix(.99378 0 0 .99369 -177.69 -148.88)">
<path d="m182.24 150.26 114.06 0.20264c1.5938 0 3.0176-0.23633 3.0176 3.1802l-0.13965 37.567h-119.82v-37.706c0-1.6851 0.16309-3.2437 2.8784-3.2437z" fill="#aab2ab" nodetypes="ccccccc"/>
<g transform="matrix(.87292 0 0 .87292 50.125 143.21)">
<path cx="296.35416" cy="264.3577" rx="22.939548" ry="22.939548" d="m187.21 30.094c0.00558 8.6802-7.0279 15.722-15.708 15.727-8.6802 0.00504-15.722-7.0279-15.727-15.708v-0.01904c-0.00504-8.6808 7.0278-15.722 15.708-15.727 8.6813-0.00504 15.722 7.0279 15.727 15.708v0.01901z" fill="#fff" type="arc"/>
<g transform="translate(-289.62 99.065)">
<path d="m473.88-81.773c3.4854 3.4854 5.2284 7.7534 5.2284 12.802 0 5.0494-1.7128 9.272-5.1384 12.668-3.6353 3.576-7.9318 5.3638-12.889 5.3638-4.8978 0-9.1199-1.7726-12.665-5.3196-3.5458-3.5453-5.3184-7.783-5.3184-12.712 0-4.9286 1.7726-9.196 5.3184-12.802 3.4552-3.4871 7.6773-5.2295 12.665-5.2295 5.0482-1e-5 9.314 1.7424 12.799 5.2295zm-23.118 2.3443c-2.9468 2.9764-4.4196 6.4634-4.4196 10.462 0 3.9984 1.4582 7.4552 4.3742 10.371 2.9166 2.916 6.3885 4.3742 10.417 4.3742 4.0286 0 7.5302-1.4723 10.507-4.419 2.8259-2.7359 4.2394-6.1771 4.2394-10.326 0-4.118-1.4365-7.613-4.3077-10.484-2.8706-2.8707-6.3498-4.3066-10.438-4.3066-4.0884 0-7.5464 1.4431-10.372 4.3284zm7.7545 8.7037c-0.45029-0.98224-1.1243-1.4728-2.0232-1.4728-1.5891 0-2.3834 1.0701-2.3834 3.2085 0 2.1396 0.79431 3.2091 2.3834 3.2091 1.0494 0 1.7989-0.52078 2.2486-1.5645l2.2028 1.173c-1.0499 1.8655-2.6251 2.7985-4.7255 2.7985-1.6199 0-2.9177-0.4967-3.8921-1.4896-0.97607-0.99344-1.4627-2.3628-1.4627-4.108 0-1.715 0.50229-3.0771 1.5075-4.085 1.0052-1.0085 2.257-1.5125 3.7578-1.5125 2.2201 0 3.8098 0.87427 4.7708 2.6223l-2.384 1.2211zm10.363 0c-0.45087-0.98224-1.1114-1.4728-1.9824-1.4728-1.6211 0-2.4321 1.0701-2.4321 3.2085 0 2.1396 0.81104 3.2091 2.4321 3.2091 1.051 0 1.7872-0.52078 2.2072-1.5645l2.252 1.173c-1.0482 1.8655-2.6212 2.7985-4.7176 2.7985-1.6177 0-2.9127-0.4967-3.8865-1.4896-0.97217-0.99344-1.4594-2.3628-1.4594-4.108 0-1.715 0.49451-3.0771 1.4829-4.085 0.98779-1.0085 2.2452-1.5125 3.7734-1.5125 2.2162 0 3.8037 0.87427 4.7614 2.6223l-2.431 1.2211z"/>
</g>
</g>
<path d="m297.3 149.82h-116.23c-1.2466 0-2.2612 1.0137-2.2612 2.2602v39.496c0 0.28174 0.229 0.51025 0.51074 0.51025h119.73c0.28174 0 0.51074-0.22852 0.51074-0.51025v-39.496c0-1.2466-1.0142-2.2602-2.2607-2.2602zm-116.23 1.0205h116.23c0.68359 0 1.2393 0.55615 1.2393 1.2398v27.381h-83.074c-3.0449 5.5059-8.9111 9.2436-15.644 9.2436-6.7354 0-12.6-3.7349-15.644-9.2436h-4.3472v-27.381c0-0.68359 0.55615-1.2398 1.2397-1.2398z"/>
<g enable-background="new    " fill="#fff">
<path d="m239.18 182.78c0.31787 0 0.60742 0.02832 0.86914 0.08398s0.48633 0.14746 0.67383 0.27539c0.18652 0.12695 0.33203 0.29688 0.43457 0.50781 0.10254 0.21191 0.1543 0.47266 0.1543 0.78418 0 0.33594-0.07617 0.61523-0.22949 0.83887-0.15234 0.22461-0.37891 0.40723-0.67773 0.55078 0.41211 0.11816 0.71973 0.3252 0.92285 0.62109s0.30469 0.65234 0.30469 1.0693c0 0.33594-0.06543 0.62695-0.19629 0.87305-0.13086 0.24512-0.30762 0.44629-0.52832 0.60156-0.22168 0.15625-0.47461 0.27148-0.75781 0.3457-0.28418 0.0752-0.5752 0.1123-0.875 0.1123h-3.2363v-6.6641h3.1416v1e-5zm-0.18701 2.6953c0.26123 0 0.47656-0.0625 0.64502-0.18652 0.16797-0.12402 0.25195-0.3252 0.25195-0.60449 0-0.15527-0.02832-0.2832-0.08398-0.38184-0.05664-0.09961-0.13086-0.17676-0.22461-0.2334-0.09326-0.05566-0.20068-0.09473-0.32227-0.11621s-0.24756-0.03223-0.37842-0.03223h-1.3735v1.5547h1.4858zm0.08545 2.8281c0.14355 0 0.28027-0.01367 0.41162-0.04199 0.13037-0.02832 0.24658-0.0752 0.34619-0.13965 0.09961-0.06543 0.17871-0.1543 0.23828-0.2666 0.05957-0.11133 0.08887-0.25488 0.08887-0.42871 0-0.3418-0.09668-0.58594-0.29004-0.73242-0.19336-0.14551-0.44873-0.21875-0.7666-0.21875h-1.5996v1.8281h1.5713z"/>
<path d="m241.89 182.78h1.6436l1.5606 2.6318 1.5508-2.6318h1.6338l-2.4736 4.1064v2.5576h-1.4688v-2.5947l-2.4463-4.0693z"/>
</g>
<g enable-background="new    " fill="#fff">
<path d="m265.78 182.78 2.7842 4.4707h0.01562v-4.4707h1.375v6.6641h-1.4658l-2.7734-4.4619h-0.01855v4.4619h-1.375v-6.6641h1.458z"/>
<path d="m275.52 184.55c-0.08691-0.14062-0.19629-0.26367-0.32715-0.36914s-0.27832-0.18848-0.44336-0.24707c-0.16504-0.05957-0.33789-0.08887-0.51758-0.08887-0.33008 0-0.61035 0.06348-0.84082 0.19141-0.23047 0.12695-0.41699 0.29785-0.55957 0.5127-0.14355 0.21484-0.24805 0.45898-0.31348 0.73242s-0.09766 0.55664-0.09766 0.84863c0 0.28027 0.03223 0.55273 0.09766 0.81641 0.06543 0.26465 0.16992 0.50293 0.31348 0.71387 0.14258 0.21191 0.3291 0.38086 0.55957 0.50879s0.51074 0.19141 0.84082 0.19141c0.44727 0 0.79785-0.13672 1.0498-0.41113 0.25195-0.27344 0.40625-0.63477 0.46191-1.083h1.419c-0.03711 0.41699-0.13379 0.79395-0.28906 1.1299-0.15527 0.33691-0.36133 0.62305-0.61621 0.86035s-0.55371 0.41797-0.89648 0.54297c-0.3418 0.125-0.71875 0.1875-1.1289 0.1875-0.51074 0-0.96973-0.08887-1.3779-0.2666-0.40723-0.17676-0.75195-0.42188-1.0322-0.73242-0.28125-0.31152-0.49609-0.67773-0.64551-1.0977-0.14941-0.4209-0.22461-0.87305-0.22461-1.3594 0-0.49805 0.0752-0.95996 0.22461-1.3867s0.36426-0.79883 0.64551-1.1162c0.28027-0.31738 0.625-0.56641 1.0322-0.74707 0.4082-0.18066 0.86719-0.27051 1.3779-0.27051 0.36719 0 0.71387 0.05273 1.041 0.15918 0.32617 0.10547 0.61914 0.25977 0.87695 0.46289 0.25879 0.20215 0.47168 0.45312 0.63965 0.75195s0.27344 0.6416 0.31738 1.0273h-1.419c-0.0244-0.16796-0.08104-0.32226-0.16796-0.46191z"/>
</g>
<g transform="matrix(1.1468 0 0 1.1468 457.94 166.15)">
<path cx="475.97119" cy="252.08646" rx="29.209877" ry="29.209877" d="m-154.14-1.0944c0.00342 4.8269-3.906 8.7419-8.7334 8.7457-4.8265 0.00299-8.7419-3.9069-8.7453-8.7329v-0.01276c-0.0034-4.8274 3.906-8.7423 8.7325-8.7462 4.8274-0.00299 8.7428 3.9069 8.7462 8.7329 1e-5 0.00427 1e-5 0.00894 1e-5 0.01321z" fill="#fff" type="arc"/>
<path d="m-162.9-11.269c2.8518 0 5.2634 0.98352 7.233 2.9502 1.9696 1.9675 2.9548 4.376 2.9548 7.2249 0 2.8488-0.9682 5.2314-2.9038 7.1482-2.0548 2.0181-4.4825 3.0264-7.2841 3.0264-2.7683 0-5.1535-1.0006-7.1572-3.0017-2.0037-2.0003-3.0051-4.3918-3.0051-7.1729 0-2.7816 1.0014-5.1901 3.0051-7.2249 1.9526-1.9666 4.3386-2.9502 7.1572-2.9502zm-7.8733 7.4412c-0.30315 0.8588-0.45471 1.7699-0.45471 2.7339 0 2.2553 0.82259 4.2049 2.4694 5.8505 1.6469 1.6444 3.608 2.4674 5.8841 2.4674 2.2753 0 4.2526-0.83069 5.9335-2.4933 0.56287-0.54327 1.027-1.1368 1.3906-1.7797l-3.8362-1.7078c-0.25974 1.2905-1.4093 2.162-2.7999 2.2642v1.569h-1.1683v-1.569c-1.1419-0.01276-2.2455-0.47983-3.0885-1.2181l1.4008-1.4131c0.67528 0.63522 1.3505 0.9205 2.2719 0.9205 0.59695 0 1.2586-0.23376 1.2586-1.0116 0-0.27548-0.1073-0.46707-0.27502-0.61099l-0.96991-0.43256-1.2083-0.53732c-0.59692-0.26654-1.1027-0.49094-1.6111-0.71744l-5.197-2.3145zm7.8989-5.6099c-2.3094 0-4.262 0.81366-5.8577 2.4422-0.43513 0.43857-0.81236 0.89667-1.1342 1.3744l3.8907 1.732c0.35085-1.0793 1.3761-1.7342 2.621-1.8065v-1.569h1.1683v1.569c0.80469 0.03873 1.6869 0.25928 2.5563 0.93286l-1.3369 1.3744c-0.49304-0.34955-1.1155-0.59607-1.7388-0.59607-0.5058 0-1.2194 0.155-1.2194 0.78979 0 0.0975 0.03151 0.18268 0.09113 0.25845l1.3011 0.57904 0.88049 0.39258c0.56287 0.25162 1.101 0.49005 1.6341 0.72763l5.2131 2.3209c0.17285-0.6825 0.25885-1.4089 0.25885-2.1778 0-2.3243-0.81491-4.2905-2.4448-5.9016-1.6136-1.6285-3.5747-2.4422-5.8832-2.4422z"/>
</g>
<circle cx="242.56" cy="165.14" r="10.806" fill="#fff"/>
<path d="m245.69 162.01c0-0.4165-0.33789-0.75391-0.75391-0.75391h-4.7725c-0.41602 0-0.75391 0.3374-0.75391 0.75391v4.773h1.331v5.6519h3.6172v-5.6519h1.332v-4.773h1e-5z"/>
<circle cx="242.55" cy="158.99" r="1.6323"/>
<path d="m242.53 153.23c-3.2314 0-5.9683 1.1274-8.2075 3.3838-2.2978 2.3335-3.4463 5.0957-3.4463 8.2847s1.1484 5.9316 3.4463 8.2266c2.2978 2.2944 5.0342 3.4419 8.2075 3.4419 3.2129 0 5.998-1.1562 8.3535-3.4712 2.2207-2.1973 3.3301-4.9297 3.3301-8.1973s-1.1289-6.0288-3.3877-8.2847c-2.2588-2.2563-5.0244-3.3838-8.2959-3.3838zm0.02929 2.0996c2.6484 0 4.8975 0.93408 6.7471 2.8008 1.8701 1.8477 2.8047 4.1035 2.8047 6.7681 0 2.6836-0.91504 4.9106-2.7461 6.6802-1.9277 1.9062-4.1963 2.8589-6.8057 2.8589s-4.8584-0.94336-6.7466-2.8296c-1.8896-1.8867-2.8335-4.123-2.8335-6.7095 0-2.5869 0.9541-4.8428 2.8623-6.7681 1.8306-1.8667 4.0703-2.8008 6.7178-2.8008z" clip-rule="evenodd" fill-rule="evenodd"/>
</g>
</svg>

<svg
  xmlns:dc="http://purl.org/dc/elements/1.1/"
  xmlns:cc="http://web.resource.org/cc/"
  xmlns:rdf="http://www.w3.org/1999/02/22-rdf-syntax-ns#"
  xmlns:svg="http://www.w3.org/2000/svg"
  xmlns="http://www.w3.org/2000/svg"
  xmlns:sodipodi="http://sodipodi.sourceforge.net/DTD/sodipodi-0.dtd"
  xmlns:inkscape="http://www.inkscape.org/namespaces/inkscape"
  width="120"
  height="42"
  id="svg2759"
  sodipodi:version="0.32"
  inkscape:version="0.45+devel"
  version="1.0"
  sodipodi:docname="by-nc.svg"
  inkscape:output_extension="org.inkscape.output.svg.inkscape"
>
  <defs id="defs2761" />
  <sodipodi:namedview
    id="base"
    pagecolor="#ffffff"
    bordercolor="#8b8b8b"
    borderopacity="1"
    gridtolerance="10000"
    guidetolerance="10"
    objecttolerance="10"
    inkscape:pageopacity="0.0"
    inkscape:pageshadow="2"
    inkscape:zoom="1"
    inkscape:cx="179"
    inkscape:cy="89.569904"
    inkscape:document-units="px"
    inkscape:current-layer="layer1"
    width="120px"
    height="42px"
    inkscape:showpageshadow="false"
    inkscape:window-width="1198"
    inkscape:window-height="624"
    inkscape:window-x="488"
    inkscape:window-y="401"
  />
  <metadata id="metadata2764">
    <rdf:RDF>
      <cc:Work rdf:about="">
        <dc:format>image/svg+xml</dc:format>
        <dc:type rdf:resource="http://purl.org/dc/dcmitype/StillImage" />
      </cc:Work>
    </rdf:RDF>
  </metadata>
  <g inkscape:label="Layer 1" inkscape:groupmode="layer" id="layer1">
    <g
      transform="matrix(0.9937808,0,0,0.9936927,-177.69414,-148.87729)"
      id="g325"
      inkscape:export-filename="/mnt/hgfs/Bov/Documents/Work/2007/cc/identity/srr buttons/big/by-nc.png"
      inkscape:export-xdpi="300.23013"
      inkscape:export-ydpi="300.23013"
    >
      <path
        id="path3817_3_"
        nodetypes="ccccccc"
        d="M 182.23535,150.26416 L 296.29931,150.4668 C 297.89306,150.4668 299.31689,150.23047 299.31689,153.64698 L 299.17724,191.21387 L 179.35693,191.21387 L 179.35693,153.50782 C 179.35693,151.82275 179.52002,150.26416 182.23535,150.26416 z"
        style="fill: #aab2ab;"
      />

      <g id="g5908_3_" transform="matrix(0.872921,0,0,0.872921,50.12536,143.2144)">
        <path
          id="path5906_3_"
          cx="296.35416"
          ry="22.939548"
          cy="264.3577"
          type="arc"
          rx="22.939548"
          d="M 187.20946,30.09433 C 187.21504,38.77457 180.1816,45.81586 171.50138,45.82144 C 162.82116,45.82648 155.77932,38.79358 155.77428,30.11337 C 155.77428,30.10666 155.77428,30.10104 155.77428,30.09433 C 155.76924,21.41357 162.80213,14.37228 171.48236,14.36725 C 180.16368,14.36221 187.20442,21.39511 187.20946,30.07532 C 187.20946,30.08148 187.20946,30.08762 187.20946,30.09433 z"
          style="fill: #ffffff;"
        />

        <g id="g5706_3_" transform="translate(-289.6157,99.0653)">
          <path
            id="path5708_3_"
            d="M 473.88458,-81.77313 C 477.36999,-78.28775 479.11297,-74.01977 479.11297,-68.97098 C 479.11297,-63.92157 477.40014,-59.69895 473.9746,-56.30304 C 470.33929,-52.72702 466.04284,-50.93927 461.08517,-50.93927 C 456.18737,-50.93927 451.9653,-52.71191 448.42004,-56.25885 C 444.87423,-59.80411 443.10162,-64.04184 443.10162,-68.97098 C 443.10162,-73.89954 444.87423,-78.16693 448.42004,-81.77313 C 451.87524,-85.26022 456.09732,-87.00265 461.08517,-87.00265 C 466.13342,-87.00266 470.39917,-85.26022 473.88458,-81.77313 z M 450.7666,-79.42883 C 447.81982,-76.45245 446.34704,-72.96539 446.34704,-68.96649 C 446.34704,-64.96814 447.80529,-61.51126 450.72125,-58.5953 C 453.63781,-55.67935 457.10977,-54.22106 461.1383,-54.22106 C 465.16686,-54.22106 468.66851,-55.69332 471.64489,-58.64004 C 474.47076,-61.37591 475.88427,-64.8171 475.88427,-68.96649 C 475.88427,-73.08453 474.44781,-76.57944 471.57659,-79.45065 C 468.70598,-82.32132 465.22674,-83.7572 461.1383,-83.7572 C 457.04993,-83.7572 453.59192,-82.31406 450.7666,-79.42883 z M 458.52106,-70.72513 C 458.07077,-71.70737 457.39673,-72.19794 456.49784,-72.19794 C 454.9087,-72.19794 454.11439,-71.12787 454.11439,-68.98941 C 454.11439,-66.84985 454.9087,-65.78033 456.49784,-65.78033 C 457.54719,-65.78033 458.29676,-66.30111 458.74647,-67.34487 L 460.94926,-66.1719 C 459.89933,-64.30642 458.32417,-63.37341 456.22377,-63.37341 C 454.60384,-63.37341 453.30611,-63.87011 452.33168,-64.86297 C 451.35561,-65.85641 450.86897,-67.22573 450.86897,-68.97097 C 450.86897,-70.68597 451.37126,-72.04803 452.37645,-73.05599 C 453.38161,-74.06453 454.6335,-74.5685 456.13426,-74.5685 C 458.35438,-74.5685 459.9441,-73.69423 460.90507,-71.94622 L 458.52106,-70.72513 z M 468.8844,-70.72513 C 468.43353,-71.70737 467.77295,-72.19794 466.90204,-72.19794 C 465.28095,-72.19794 464.46991,-71.12787 464.46991,-68.98941 C 464.46991,-66.84985 465.28095,-65.78033 466.90204,-65.78033 C 467.95307,-65.78033 468.68921,-66.30111 469.10925,-67.34487 L 471.36126,-66.1719 C 470.31304,-64.30642 468.74011,-63.37341 466.64361,-63.37341 C 465.02587,-63.37341 463.73095,-63.87011 462.75714,-64.86297 C 461.78497,-65.85641 461.29773,-67.22573 461.29773,-68.97097 C 461.29773,-70.68597 461.79224,-72.04803 462.78064,-73.05599 C 463.76843,-74.06453 465.02588,-74.5685 466.55408,-74.5685 C 468.77027,-74.5685 470.35779,-73.69423 471.31543,-71.94622 L 468.8844,-70.72513 z"
          />
        </g>
      </g>

      <path
        d="M 297.29639,149.82227 L 181.06739,149.82227 C 179.82081,149.82227 178.80616,150.83594 178.80616,152.08252 L 178.80616,191.57861 C 178.80616,191.86035 179.03516,192.08886 179.3169,192.08886 L 299.04639,192.08886 C 299.32813,192.08886 299.55713,191.86034 299.55713,191.57861 L 299.55713,152.08252 C 299.55713,150.83594 298.54297,149.82227 297.29639,149.82227 z M 181.06738,150.84277 L 297.29638,150.84277 C 297.97997,150.84277 298.53564,151.39892 298.53564,152.08252 C 298.53564,152.08252 298.53564,167.96777 298.53564,179.46387 L 215.46191,179.46387 C 212.41699,184.96973 206.55078,188.70752 199.81836,188.70752 C 193.08301,188.70752 187.21826,184.97266 184.17481,179.46387 L 179.82764,179.46387 C 179.82764,167.96778 179.82764,152.08252 179.82764,152.08252 C 179.82764,151.39893 180.38379,150.84277 181.06738,150.84277 z"
        id="path332"
      />

      <g enable-background="new    " id="g334">
        <path
          d="M 239.17822,182.77734 C 239.49609,182.77734 239.78564,182.80566 240.04736,182.86132 C 240.30908,182.91698 240.53369,183.00878 240.72119,183.13671 C 240.90771,183.26366 241.05322,183.43359 241.15576,183.64452 C 241.2583,183.85643 241.31006,184.11718 241.31006,184.4287 C 241.31006,184.76464 241.23389,185.04393 241.08057,185.26757 C 240.92823,185.49218 240.70166,185.6748 240.40284,185.81835 C 240.81495,185.93651 241.12257,186.14355 241.32569,186.43944 C 241.52881,186.73533 241.63038,187.09178 241.63038,187.50878 C 241.63038,187.84472 241.56495,188.13573 241.43409,188.38183 C 241.30323,188.62695 241.12647,188.82812 240.90577,188.98339 C 240.68409,189.13964 240.43116,189.25487 240.14796,189.32909 C 239.86378,189.40429 239.57276,189.44139 239.27296,189.44139 L 236.03663,189.44139 L 236.03663,182.77733 L 239.17822,182.77733 L 239.17822,182.77734 z M 238.99121,185.47266 C 239.25244,185.47266 239.46777,185.41016 239.63623,185.28614 C 239.8042,185.16212 239.88818,184.96094 239.88818,184.68165 C 239.88818,184.52638 239.85986,184.39845 239.8042,184.29981 C 239.74756,184.2002 239.67334,184.12305 239.57959,184.06641 C 239.48633,184.01075 239.37891,183.97168 239.25732,183.9502 C 239.13573,183.92872 239.00976,183.91797 238.8789,183.91797 L 237.50536,183.91797 L 237.50536,185.47266 L 238.99121,185.47266 z M 239.07666,188.30078 C 239.22021,188.30078 239.35693,188.28711 239.48828,188.25879 C 239.61865,188.23047 239.73486,188.18359 239.83447,188.11914 C 239.93408,188.05371 240.01318,187.96484 240.07275,187.85254 C 240.13232,187.74121 240.16162,187.59766 240.16162,187.42383 C 240.16162,187.08203 240.06494,186.83789 239.87158,186.69141 C 239.67822,186.5459 239.42285,186.47266 239.10498,186.47266 L 237.50537,186.47266 L 237.50537,188.30078 L 239.07666,188.30078 L 239.07666,188.30078 z"
          id="path336"
          style="fill: #ffffff;"
        />

        <path
          d="M 241.88916,182.77734 L 243.53271,182.77734 L 245.09326,185.40918 L 246.64404,182.77734 L 248.27783,182.77734 L 245.8042,186.88379 L 245.8042,189.44141 L 244.33545,189.44141 L 244.33545,186.84668 L 241.88916,182.77734 z"
          id="path338"
          style="fill: #ffffff;"
        />
      </g>

      <g enable-background="new    " id="g340">
        <path
          d="M 265.78076,182.77734 L 268.56494,187.24804 L 268.58056,187.24804 L 268.58056,182.77734 L 269.95556,182.77734 L 269.95556,189.4414 L 268.48974,189.4414 L 265.7163,184.97949 L 265.69775,184.97949 L 265.69775,189.4414 L 264.32275,189.4414 L 264.32275,182.77734 L 265.78076,182.77734 z"
          id="path342"
          style="fill: #ffffff;"
        />

        <path
          d="M 275.51904,184.55273 C 275.43213,184.41211 275.32275,184.28906 275.19189,184.18359 C 275.06103,184.07812 274.91357,183.99511 274.74853,183.93652 C 274.58349,183.87695 274.41064,183.84765 274.23095,183.84765 C 273.90087,183.84765 273.6206,183.91113 273.39013,184.03906 C 273.15966,184.16601 272.97314,184.33691 272.83056,184.55176 C 272.68701,184.7666 272.58251,185.01074 272.51708,185.28418 C 272.45165,185.55762 272.41942,185.84082 272.41942,186.13281 C 272.41942,186.41308 272.45165,186.68554 272.51708,186.94922 C 272.58251,187.21387 272.687,187.45215 272.83056,187.66309 C 272.97314,187.875 273.15966,188.04395 273.39013,188.17188 C 273.6206,188.29981 273.90087,188.36329 274.23095,188.36329 C 274.67822,188.36329 275.0288,188.22657 275.28075,187.95216 C 275.5327,187.67872 275.687,187.31739 275.74266,186.86915 L 277.16161,186.86915 C 277.1245,187.28614 277.02782,187.6631 276.87255,187.99903 C 276.71728,188.33594 276.51122,188.62208 276.25634,188.85938 C 276.00146,189.09668 275.70263,189.27735 275.35986,189.40235 C 275.01806,189.52735 274.64111,189.58985 274.23095,189.58985 C 273.72021,189.58985 273.26122,189.50098 272.85302,189.32325 C 272.44579,189.14649 272.10107,188.90137 271.82079,188.59083 C 271.53954,188.27931 271.3247,187.9131 271.17528,187.49317 C 271.02587,187.07227 270.95067,186.62012 270.95067,186.13379 C 270.95067,185.63574 271.02587,185.17383 271.17528,184.74707 C 271.32469,184.32031 271.53954,183.94824 271.82079,183.63086 C 272.10106,183.31348 272.44579,183.06445 272.85302,182.88379 C 273.26122,182.70313 273.72021,182.61328 274.23095,182.61328 C 274.59814,182.61328 274.94482,182.66601 275.27197,182.77246 C 275.59814,182.87793 275.89111,183.03223 276.14892,183.23535 C 276.40771,183.4375 276.6206,183.68847 276.78857,183.9873 C 276.95654,184.28613 277.06201,184.6289 277.10595,185.01464 L 275.687,185.01464 C 275.6626,184.84668 275.60596,184.69238 275.51904,184.55273 z"
          id="path344"
          style="fill: #ffffff;"
        />
      </g>

      <g id="g6379_1_" transform="matrix(1.146822,0,0,1.146822,457.9375,166.153)">
        <path
          id="path6381_1_"
          cx="475.97119"
          ry="29.209877"
          cy="252.08646"
          type="arc"
          rx="29.209877"
          d="M -154.14499,-1.09436 C -154.14157,3.73257 -158.051,7.64752 -162.87836,7.65134 C -167.70488,7.65433 -171.62026,3.74448 -171.62366,-1.0816 C -171.62366,-1.0867 -171.62366,-1.09054 -171.62366,-1.09436 C -171.62706,-5.92175 -167.71765,-9.8367 -162.89115,-9.84051 C -158.06376,-9.8435 -154.14838,-5.93365 -154.145,-1.10757 C -154.14499,-1.1033 -154.14499,-1.09863 -154.14499,-1.09436 z"
          style="fill: #ffffff;"
        />

        <path
          id="path6383_1_"
          d="M -162.89709,-11.26941 C -160.04528,-11.26941 -157.63372,-10.28589 -155.66412,-8.31925 C -153.69452,-6.35178 -152.70929,-3.94321 -152.70929,-1.09437 C -152.70929,1.75445 -153.67749,4.13704 -155.61304,6.05385 C -157.66779,8.07198 -160.09552,9.08022 -162.8971,9.08022 C -165.66544,9.08022 -168.0506,8.07967 -170.05428,6.07854 C -172.05794,4.07827 -173.05935,1.68672 -173.05935,-1.09437 C -173.05935,-3.87593 -172.05795,-6.28449 -170.05428,-8.31925 C -168.1017,-10.28589 -165.71568,-11.26941 -162.89709,-11.26941 z M -170.77042,-3.82825 C -171.07357,-2.96945 -171.22513,-2.05832 -171.22513,-1.09436 C -171.22513,1.16092 -170.40254,3.11054 -168.75568,4.7561 C -167.1088,6.40045 -165.14771,7.22345 -162.87156,7.22345 C -160.59623,7.22345 -158.61897,6.39276 -156.93803,4.73013 C -156.37516,4.18686 -155.91108,3.59335 -155.54747,2.95044 L -159.38365,1.24268 C -159.64339,2.53318 -160.79295,3.40473 -162.18352,3.5069 L -162.18352,5.07587 L -163.35182,5.07587 L -163.35182,3.5069 C -164.49374,3.49414 -165.59733,3.02707 -166.44035,2.28879 L -165.03958,0.87567 C -164.3643,1.51089 -163.68904,1.79617 -162.76768,1.79617 C -162.17073,1.79617 -161.5091,1.56241 -161.5091,0.78454 C -161.5091,0.50906 -161.6164,0.31747 -161.78412,0.17355 L -162.75403,-0.25901 L -163.96237,-0.79633 C -164.55929,-1.06287 -165.06511,-1.28727 -165.57347,-1.51377 L -170.77042,-3.82825 z M -162.87155,-9.43817 C -165.18092,-9.43817 -167.1335,-8.62451 -168.72928,-6.99597 C -169.16441,-6.5574 -169.54164,-6.0993 -169.86353,-5.62158 L -165.97286,-3.88955 C -165.62201,-4.96887 -164.59676,-5.62371 -163.35181,-5.69607 L -163.35181,-7.26504 L -162.18351,-7.26504 L -162.18351,-5.69607 C -161.37882,-5.65734 -160.49662,-5.43679 -159.62721,-4.76321 L -160.96412,-3.38885 C -161.45716,-3.7384 -162.07963,-3.98492 -162.70295,-3.98492 C -163.20875,-3.98492 -163.92236,-3.82992 -163.92236,-3.19513 C -163.92236,-3.09763 -163.89085,-3.01245 -163.83123,-2.93668 L -162.5301,-2.35764 L -161.64961,-1.96506 C -161.08674,-1.71344 -160.54857,-1.47501 -160.01552,-1.23743 L -154.80239,1.08343 C -154.62954,0.40093 -154.54354,-0.32544 -154.54354,-1.09437 C -154.54354,-3.41865 -155.35845,-5.38487 -156.9883,-6.99598 C -158.60193,-8.62451 -160.56302,-9.43817 -162.87155,-9.43817 z"
        />
      </g>

      <g id="g349">
        <circle
          cx="242.56226"
          cy="165.13574"
          r="10.8064"
          id="circle351"
          sodipodi:cx="242.56226"
          sodipodi:cy="165.13574"
          sodipodi:rx="10.8064"
          sodipodi:ry="10.8064"
          style="fill: #ffffff;"
        />

        <g id="g353">
          <path
            d="M 245.68994,162.00928 C 245.68994,161.59278 245.35205,161.25537 244.93603,161.25537 L 240.16357,161.25537 C 239.74755,161.25537 239.40966,161.59277 239.40966,162.00928 L 239.40966,166.78223 L 240.74071,166.78223 L 240.74071,172.43409 L 244.3579,172.43409 L 244.3579,166.78223 L 245.68993,166.78223 L 245.68993,162.00928 L 245.68994,162.00928 z"
            id="path355"
          />

          <circle
            cx="242.5498"
            cy="158.99463"
            r="1.63232"
            id="circle357"
            sodipodi:cx="242.5498"
            sodipodi:cy="158.99463"
            sodipodi:rx="1.63232"
            sodipodi:ry="1.63232"
          />
        </g>

        <path
          clip-rule="evenodd"
          d="M 242.53467,153.22949 C 239.30322,153.22949 236.56641,154.35693 234.32715,156.61328 C 232.0293,158.94678 230.88086,161.70898 230.88086,164.89795 C 230.88086,168.08692 232.0293,170.82959 234.32715,173.12451 C 236.625,175.41894 239.36133,176.5664 242.53467,176.5664 C 245.74756,176.5664 248.53272,175.41015 250.88819,173.09521 C 253.10889,170.89794 254.21827,168.16552 254.21827,164.89794 C 254.21827,161.63036 253.08936,158.86913 250.83057,156.61327 C 248.57178,154.35693 245.80615,153.22949 242.53467,153.22949 z M 242.56396,155.3291 C 245.2124,155.3291 247.46142,156.26318 249.31103,158.12988 C 251.18115,159.97754 252.11572,162.2334 252.11572,164.89795 C 252.11572,167.58154 251.20068,169.80859 249.36963,171.57813 C 247.4419,173.48438 245.17334,174.43702 242.56397,174.43702 C 239.9546,174.43702 237.70557,173.49366 235.81739,171.60743 C 233.92774,169.72071 232.98389,167.48438 232.98389,164.89796 C 232.98389,162.31105 233.93799,160.05519 235.84619,158.12989 C 237.67676,156.26318 239.9165,155.3291 242.56396,155.3291 z"
          id="path359"
          style="fill-rule: evenodd;"
        />
      </g>
    </g>
  </g>
</svg>
